Gurmukhi/0A73.svg

<svg enable-background="new 0 0 336 592" viewBox="0 0 336 592" xmlns="http://www.w3.org/2000/svg"><path d="m181.164093 116.678024c18.923981-1.104805 35.500671 3.596787 49.164658 16.412918 12.984726 12.179032 19.920257 27.623383 22.92337 44.953873.765472 4.417419 1.370178 8.895218 1.574844 13.366959.163788 3.578262 1.818756 4.559341 5.043946 4.439926 3.992981-.147843 7.999878.074844 11.992492-.077927 3.066468-.11734 5.024292.896149 6.028199 3.964585 1.187774 3.630371 2.759796 7.133026 4.060394 10.728973 1.817596 5.025375.650421 6.628982-4.878967 6.697006-4.830658.059433-9.66269-.004288-14.49408.007507-7.039307.017197-7.169144.014252-7.749893 6.848816-1.037445 12.209488-3.531891 23.97995-9.198426 34.985962-5.746749 11.161805-14.076278 19.668305-25.161483 25.527069-.828781.438019-1.971329.62616-2.239716 1.944642 1.16951 1.901489 3.322052 2.540893 5.140289 3.609985 26.631623 15.659302 36.021546 44.943085 24.903565 71.795105-7.437805 17.963653-22.298691 27.330841-41.008377 30.354095-37.05986 5.988434-64.792175-11.913208-82.916687-42.099273-13.935784-23.209778-20.538422-48.845032-23.808022-75.555664-2.157264-17.623444-2.083679-35.18866-.719726-52.816407.099769-1.289489.628746-2.629821-.432198-4.179763-5.200096-.882828-10.685295-.4375-16.121269-.325409-3.730156.076919-5.962547-1.178757-7.112373-4.760712-1.117218-3.480423-2.647065-6.827301-3.795739-10.298981-1.50132-4.537445-.305641-6.298569 4.408997-6.385834 6.495239-.120239 12.995186.031723 19.491463-.055664 8.798393-.118347 7.271988 1.008576 9.741203-7.166153 4.760849-15.76152 11.432014-30.575592 22.214882-43.194122 13.822815-16.175995 30.950485-26.505974 52.948654-28.721512m46.941269 230.800431c6.195099-18.76471-1.011719-35.220826-13.984314-43.539124-6.994003-4.484711-14.731369-6.899811-22.978394-7.650146-19.783966-1.799988-39.620285-.505646-59.425827-.989258-4.121666-.100647-4.88076 1.798523-4.198059 5.23294 3.278138 16.491181 8.706253 32.126374 18.998261 45.654389 12.570053 16.522278 28.417969 26.289429 50.135284 23.635071 14.239838-1.740479 25.127777-8.139862 31.453049-22.343872m-94.52742-75.789032c16.643967.003112 33.288162-.038514 49.931778.03952 4.363037.020447 8.620621-.577576 12.813415-1.602203 21.231278-5.188324 37.064286-23.107636 40.426529-45.179169 1.305985-8.573151 1.299774-7.750122-6.88565-7.762406-25.631668-.038498-51.263443-.011459-76.895188-.004516-7.656158.002075-15.312484.05368-22.968399.015762-2.713073-.013443-4.309784.837006-4.683998 3.86229-1.945038 15.724182-1.787102 31.476745-.993591 47.253646.113487 2.256379.969009 3.4086 3.293228 3.356659 1.663261-.03714 3.328392.009552 5.961876.020417m1.042541-87.663559c-1.335449 3.665527-3.478637 7.113037-3.263656 11.765411 6.513733 0 12.811935.000015 19.110138 0 26.984039-.000107 53.968078.001831 80.952118-.001801 6.62387-.000885 6.693649-.013519 6.28363-6.73706-.161102-2.641617-.608734-5.278976-1.101349-7.885117-6.08078-32.169723-33.885757-48.767501-64.187286-37.72586-18.941941 6.902267-30.022049 21.846878-37.793595 40.584427z"/></svg>

<svg version="1.1" id="Layer_1" xmlns="http://www.w3.org/2000/svg" xmlns:xlink="http://www.w3.org/1999/xlink" x="0px" y="0px"
	 width="100%" viewBox="0 0 336 592" enable-background="new 0 0 336 592" xml:space="preserve">
<path fill="#000000" opacity="1.000000" stroke="none" 
	d="
M181.164093,116.678024 
	C200.088074,115.573219 216.664764,120.274811 230.328751,133.090942 
	C243.313477,145.269974 250.249008,160.714325 253.252121,178.044815 
	C254.017593,182.462234 254.622299,186.940033 254.826965,191.411774 
	C254.990753,194.990036 256.645721,195.971115 259.870911,195.851700 
	C263.863892,195.703857 267.870789,195.926544 271.863403,195.773773 
	C274.929871,195.656433 276.887695,196.669922 277.891602,199.738358 
	C279.079376,203.368729 280.651398,206.871384 281.951996,210.467331 
	C283.769592,215.492706 282.602417,217.096313 277.073029,217.164337 
	C272.242371,217.223770 267.410339,217.160049 262.578949,217.171844 
	C255.539642,217.189041 255.409805,217.186096 254.829056,224.020660 
	C253.791611,236.230148 251.297165,248.000610 245.630630,259.006622 
	C239.883881,270.168427 231.554352,278.674927 220.469147,284.533691 
	C219.640366,284.971710 218.497818,285.159851 218.229431,286.478333 
	C219.398941,288.379822 221.551483,289.019226 223.369720,290.088318 
	C250.001343,305.747620 259.391266,335.031403 248.273285,361.883423 
	C240.835480,379.847076 225.974594,389.214264 207.264908,392.237518 
	C170.205048,398.225952 142.472733,380.324310 124.348221,350.138245 
	C110.412437,326.928467 103.809799,301.293213 100.540199,274.582581 
	C98.382935,256.959137 98.456520,239.393921 99.820473,221.766174 
	C99.920242,220.476685 100.449219,219.136353 99.388275,217.586411 
	C94.188179,216.703583 88.702980,217.148911 83.267006,217.261002 
	C79.536850,217.337921 77.304459,216.082245 76.154633,212.500290 
	C75.037415,209.019867 73.507568,205.672989 72.358894,202.201309 
	C70.857574,197.663864 72.053253,195.902740 76.767891,195.815475 
	C83.263130,195.695236 89.763077,195.847198 96.259354,195.759811 
	C105.057747,195.641464 103.531342,196.768387 106.000557,188.593658 
	C110.761406,172.832138 117.432571,158.018066 128.215439,145.399536 
	C142.038254,129.223541 159.165924,118.893562 181.164093,116.678024 
M228.105362,347.478455 
	C234.300461,328.713745 227.093643,312.257629 214.121048,303.939331 
	C207.127045,299.454620 199.389679,297.039520 191.142654,296.289185 
	C171.358688,294.489197 151.522369,295.783539 131.716827,295.299927 
	C127.595161,295.199280 126.836067,297.098450 127.518768,300.532867 
	C130.796906,317.024048 136.225021,332.659241 146.517029,346.187256 
	C159.087082,362.709534 174.934998,372.476685 196.652313,369.822327 
	C210.892151,368.081848 221.780090,361.682465 228.105362,347.478455 
M133.577942,271.689423 
	C150.221909,271.692535 166.866104,271.650909 183.509720,271.728943 
	C187.872757,271.749390 192.130341,271.151367 196.323135,270.126740 
	C217.554413,264.938416 233.387421,247.019104 236.749664,224.947571 
	C238.055649,216.374420 238.049438,217.197449 229.864014,217.185165 
	C204.232346,217.146667 178.600571,217.173706 152.968826,217.180649 
	C145.312668,217.182724 137.656342,217.234329 130.000427,217.196411 
	C127.287354,217.182968 125.690643,218.033417 125.316429,221.058701 
	C123.371391,236.782883 123.529327,252.535446 124.322838,268.312347 
	C124.436325,270.568726 125.291847,271.720947 127.616066,271.669006 
	C129.279327,271.631866 130.944458,271.678558 133.577942,271.689423 
M134.620483,184.025864 
	C133.285034,187.691391 131.141846,191.138901 131.356827,195.791275 
	C137.870560,195.791275 144.168762,195.791290 150.466965,195.791275 
	C177.451004,195.791168 204.435043,195.793106 231.419083,195.789474 
	C238.042953,195.788589 238.112732,195.775955 237.702713,189.052414 
	C237.541611,186.410797 237.093979,183.773438 236.601364,181.167297 
	C230.520584,148.997574 202.715607,132.399796 172.414078,143.441437 
	C153.472137,150.343704 142.392029,165.288315 134.620483,184.025864 
z"/>
</svg>
